X: 7894
T:Swedish Barn Dance (2)
R:Hornpipe
R:Schottische
O:Sweden
O:England
M:4/4
K:D
f>e| d2d>B A3F | G>FG>A B4 | \
A>^GA>c e2e2 | f>gf>e d>ef>e |\
d2d>B A3F | G>FG>A B4 |
(3ABA c>B A>GF>E | D>dA>F D2 ::\
K:A
c>d |\
e2e2e3d | (3cdc A>c e2e2 |
(3BcB G>B e2e2 | (3cdc A>c e>cd>^d |\
e2e2e3d | (3cdc A>c e>cd>^d | \
(3efe g>f e>dc>B | A>ae>c A2 :|
|: g2 |\
(3aaa f>d A2A>f | (3efe c>A E2E2 |\
E>FG>A B>dc>B | A>Bc>d e2e2 |
(3aaa f>d A>df>a | (3efe c>A E2E2 |\
E>FG>A B>dc>B | A2A>G A2 :|
